svg/fluentui-system-icons/ic_fluent_stack_star_20_filled.svg

<svg width="20" height="20" viewBox="0 0 20 20" fill="none" xmlns="http://www.w3.org/2000/svg">
<path d="M4 3C2.89543 3 2 3.89543 2 5V11C2 12.1046 2.89543 13 4 13H12C13.1046 13 14 12.1046 14 11V5C14 3.89543 13.1046 3 12 3H4ZM8.33232 5.07628L9.24076 6.81416L11.0445 7.02983C11.1947 7.04778 11.3193 7.15417 11.3607 7.29963C11.402 7.44509 11.352 7.60115 11.2337 7.69541L9.91882 8.74353L10.3653 10.6651C10.3993 10.8117 10.3425 10.9643 10.221 11.053C10.0994 11.1416 9.93668 11.1491 9.80757 11.0719L7.99999 9.99125L6.19241 11.0719C6.0633 11.1491 5.90056 11.1416 5.77902 11.053C5.65748 10.9643 5.60067 10.8117 5.63472 10.6651L6.08115 8.74353L4.76624 7.69541C4.64799 7.60115 4.59793 7.44509 4.63928 7.29963C4.68063 7.15417 4.80531 7.04778 4.95547 7.02983L6.75921 6.81416L7.66765 5.07628C7.73233 4.95255 7.86038 4.875 7.99999 4.875C8.1396 4.875 8.26765 4.95255 8.33232 5.07628ZM4.26758 14C4.61339 14.5978 5.25973 15 6.00001 15H12C14.2092 15 16 13.2092 16 11V7.00001C16 6.25973 15.5978 5.61339 15 5.26758V11C15 12.6569 13.6569 14 12 14H4.26758ZM6.26758 16C6.61339 16.5978 7.25973 17 8.00001 17H12C15.3137 17 18 14.3137 18 11V9.00001C18 8.25973 17.5978 7.61339 17 7.26758V11C17 13.7614 14.7614 16 12 16H6.26758Z" fill="#212121"/>
</svg>

<svg xmlns="http://www.w3.org/2000/svg" width="20" height="20"><path d="M4 3a2 2 0 0 0-2 2v6a2 2 0 0 0 2 2h8a2 2 0 0 0 2-2V5a2 2 0 0 0-2-2H4Zm4.332 2.076.909 1.738 1.803.216a.375.375 0 0 1 .19.665L9.919 8.744l.446 1.921a.375.375 0 0 1-.557.407L8 9.992l-1.808 1.08a.375.375 0 0 1-.557-.407l.446-1.921-1.315-1.049a.375.375 0 0 1 .19-.665l1.803-.216.909-1.738a.375.375 0 0 1 .664 0ZM4.268 14A2 2 0 0 0 6 15h6a4 4 0 0 0 4-4V7a2 2 0 0 0-1-1.732V11a3 3 0 0 1-3 3H4.268Zm2 2A2 2 0 0 0 8 17h4a6 6 0 0 0 6-6V9a2 2 0 0 0-1-1.732V11a5 5 0 0 1-5 5H6.268Z"/></svg>
